!!!OTL: 2032. Die arme Seele.
!!!ARE: Europa, Mitteleuropa, Deutschland, Hessen, Marburg
!!!SCT: E2032A
!!!TXL: @@DE
!!!YEM: Copyright 1995, estate of Helmut Schaffrath.
**kern	**text
*ICvox	*
*M3/4	*
*met(3)	*
*k[b-]	*
*F:	*
!LO:TX:a:t=Mel. aus der Gegend von Marburg.	!
{8fL	Es
8aJ	.
=1	=1
4.cc	ſan-
8dd	-gen
8ccL	drei
8b-J	.
=2	=2
4.a	En-
8g	-gel
8a	ei-
8cc	-nen
=3	=3
4b-/	ſü-
4b-/	-ßen
4a	Ge-
=4	=4
2g}	-ſang,
=||	=||
{8aL	ſie
8gJ	.
=5	=5
4f	ſan-
4f	-gen
4g	ſo
=6	=6
4a	hoch,
4a	daß's
8b-L	ʒum
8ddJ	.
=7	=7
4.cc	Him-
8b-	-mel
8gL	'nein
8aJ	.
=8	=8
2f}	klang.
==	==
!!!AGN: geistlich, Wallfahrts - Lied
!!!ONB: ESAC (Essen Associative Code) Database: ERK3
!!!AMT: simple triple
!!!AIN: vox
!!!EED: Helmut Schaffrath
!!!EEV: 1.0
!!!GTL: 4. Katholische Lieder: a) Wallfahrtlieder zur Bittwoche und zum Fronleichnamstag.
!!!URL-scan: https://rosdok.uni-rostock.de/mcrviewer/recordIdentifier/rosdok_ppn745177999/iview2/phys_0740.iview2?x=172.5045755776273&y=1185.953284099698&scale=0.7014306698522891&rotation=0&layout=singlePageLayout
!!!ENC: Anna Maria Matuszewska
!!!EEV: 2025/10/01
*-	*-
